X:1
T:New Mown Meadows (Oisin Mac Diarmada ver.)
L:1/8
Q:1/4=120
M:4/4
K:Bmix
E2 |: FB, B,A, B,C DE | F2 FF FE CE | E F2 B, B,C DE | 
EF FE CE EG | FB, B,A, B,C DE | F2 FF FE FG | AF FA G2 GF |1 E2 FE CE EG :|2 E2 FE CE Ec |
|: B2 GB cB GB | B2 GE FE CE | B3 c cB GF | EF FE CE Ec | 
B3 c cB e2 | BE GE FE CE | AF FA G2 GF |1 EF FE CE Ec :|2 EF FE CE EG |] 